X: 6
T: Girl With The Blue Dress On, The
Z: ceolachan
S: https://thesession.org/tunes/5762#setting17712
R: polka
M: 2/4
L: 1/8
K: Gmaj
d2 c/B/A/c/ | BG G>B | AF F/E/F/G/ | AG G/A/B/c/ |dB/d/ cd/c/ | B/A/G/F/ GG/B/ | AF F/E/D/F/ |A/G/G G :|G (3B/c/d/ ga/g/ | fe e/^d/e/c/ | DF/A/ f>e | ed d/c/B/A/ |GB/d/ gd/g/ | fe e/^d/e/g/ | f/g/a e>f | g2- g :|GB/d/ g2 | fe/^d/ ed/^c/ | D (3F/G/A/ f2 | ed/^c/ dc/d/ |GB gd | fe ea/g/ | fa/f/ ef | g2 G/A/ |]
